;FLAVOR:Marlin
;TIME:1351
;Filament used: 1.03994m
;Layer height: 0.2
;MINX:69.951
;MINY:85.631
;MINZ:0.2
;MAXX:150.951
;MAXY:131.631
;MAXZ:10
;Generated with Cura_SteamEngine 4.12.1
M140 S50
M105
M190 S50
M104 S200
M105
M109 S200
M82 ;absolute extrusion mode
M201 X500.00 Y500.00 Z100.00 E5000.00 ;Setup machine max acceleration
M203 X500.00 Y500.00 Z10.00 E50.00 ;Setup machine max feedrate
M204 P500.00 R1000.00 T500.00 ;Setup Print/Retract/Travel acceleration
M205 X8.00 Y8.00 Z0.40 E5.00 ;Setup Jerk
M220 S100 ;Reset Feedrate
M221 S100 ;Reset Flowrate

G28 ;Home

G92 E0 ;Reset Extruder
G1 Z2.0 F3000 ;Move Z Axis up
G1 X10.1 Y20 Z0.28 F5000.0 ;Move to start position
G1 X10.1 Y200.0 Z0.28 F1500.0 E15 ;Draw the first line
G1 X10.4 Y200.0 Z0.28 F5000.0 ;Move to side a little
G1 X10.4 Y20 Z0.28 F1500.0 E30 ;Draw the second line
G92 E0 ;Reset Extruder
G1 Z2.0 F3000 ;Move Z Axis up

G92 E0
G92 E0
G1 F2700 E-5
;LAYER_COUNT:50
;LAYER:0
M107
G0 F6000 X73.837 Y88.258 Z0.2
;TYPE:SKIRT
G1 F2700 E0
G1 F1200 X74.577 Y87.682 E0.03119
G1 X75.363 Y87.17 E0.06239
G1 X76.19 Y86.728 E0.09358
G1 X77.052 Y86.358 E0.12478
G1 X77.942 Y86.062 E0.15597
G1 X78.854 Y85.844 E0.18716
G1 X79.781 Y85.703 E0.21835
G1 X80.652 Y85.644 E0.24738
G1 X80.973 Y85.635 E0.25806
G1 X81.281 Y85.631 E0.26831
G1 X84.244 Y85.631 E0.36686
G1 X85.103 Y85.642 E0.39543
G1 X86.039 Y85.695 E0.42661
G1 X86.854 Y85.808 E0.45398
G1 X87.597 Y85.964 E0.47923
G1 X88.792 Y86.258 E0.52016
G1 X89.351 Y86.402 E0.53936
G1 X91.813 Y86.967 E0.62338
G1 X94.28 Y87.462 E0.70706
G1 X96.761 Y87.882 E0.79076
G1 X99.244 Y88.234 E0.87417
G1 X101.749 Y88.515 E0.95801
G1 X104.239 Y88.725 E1.04112
G1 X106.77 Y88.866 E1.12543
G1 X109.285 Y88.935 E1.20911
G1 X111.81 Y88.933 E1.29309
G1 X114.305 Y88.86 E1.37611
G1 X116.842 Y88.714 E1.46063
G1 X119.324 Y88.5 E1.54349
G1 X121.852 Y88.211 E1.62812
G1 X124.329 Y87.856 E1.71135
G1 X126.8 Y87.43 E1.79475
G1 X129.248 Y86.938 E1.87779
G1 X131.798 Y86.348 E1.96485
G1 X133.217 Y85.987 E2.01355
G1 X134.135 Y85.792 E2.04476
G1 X135.065 Y85.677 E2.07593
G1 X135.618 Y85.646 E2.09435
G1 X135.945 Y85.636 E2.10523
G1 X136.281 Y85.631 E2.11641
G1 X139.386 Y85.632 E2.21968
G1 X140.084 Y85.641 E2.2429
G1 X141.02 Y85.693 E2.27408
G1 X141.949 Y85.825 E2.30529
G1 X142.863 Y86.035 E2.33648
G1 X143.756 Y86.322 E2.36768
G1 X144.621 Y86.685 E2.39888
G1 X145.452 Y87.119 E2.43006
G1 X146.243 Y87.623 E2.46125
G1 X146.988 Y88.193 E2.49245
G1 X147.682 Y88.824 E2.52365
G1 X148.319 Y89.511 E2.55481
G1 X148.896 Y90.251 E2.58602
G1 X149.408 Y91.037 E2.61722
G1 X149.851 Y91.864 E2.64843
G1 X150.222 Y92.725 E2.67961
G1 X150.518 Y93.615 E2.7108
G1 X150.737 Y94.527 E2.742
G1 X150.878 Y95.454 E2.77319
G1 X150.938 Y96.332 E2.80246
G1 X150.947 Y96.653 E2.81314
G1 X150.951 Y96.961 E2.82338
G1 X150.95 Y120.031 E3.59069
G1 X150.941 Y120.758 E3.61488
G1 X150.89 Y121.695 E3.64609
G1 X150.758 Y122.623 E3.67726
G1 X150.549 Y123.537 E3.70845
G1 X150.262 Y124.43 E3.73964
G1 X149.9 Y125.296 E3.77086
G1 X149.466 Y126.127 E3.80204
G1 X148.962 Y126.918 E3.83324
G1 X148.393 Y127.663 E3.86442
G1 X147.762 Y128.358 E3.89564
G1 X147.075 Y128.996 E3.92682
G1 X146.336 Y129.573 E3.95801
G1 X145.55 Y130.085 E3.98921
G1 X144.724 Y130.528 E4.02038
G1 X143.862 Y130.9 E4.05161
G1 X142.973 Y131.196 E4.08277
G1 X142.061 Y131.416 E4.11398
G1 X141.134 Y131.557 E4.14516
G1 X140.25 Y131.618 E4.17463
G1 X139.929 Y131.627 E4.18532
G1 X139.621 Y131.631 E4.19556
G1 X81.516 Y131.63 E6.12814
G1 X80.818 Y131.621 E6.15136
G1 X79.882 Y131.569 E6.18254
G1 X78.953 Y131.437 E6.21375
G1 X78.039 Y131.227 E6.24494
G1 X77.146 Y130.94 E6.27614
G1 X76.281 Y130.577 E6.30734
G1 X75.45 Y130.143 E6.33852
G1 X74.659 Y129.639 E6.36971
G1 X73.914 Y129.069 E6.40091
G1 X73.22 Y128.438 E6.43211
G1 X72.583 Y127.751 E6.46327
G1 X72.006 Y127.011 E6.49448
G1 X71.494 Y126.225 E6.52568
G1 X71.051 Y125.398 E6.55688
G1 X70.68 Y124.537 E6.58807
G1 X70.384 Y123.647 E6.61926
G1 X70.165 Y122.735 E6.65046
G1 X70.024 Y121.808 E6.68165
G1 X69.964 Y120.919 E6.71128
G1 X69.955 Y120.586 E6.72236
G1 X69.951 Y120.289 E6.73224
G1 X69.952 Y97.156 E7.50165
G1 X69.961 Y96.491 E7.52377
G1 X70.014 Y95.555 E7.55495
G1 X70.146 Y94.626 E7.58616
G1 X70.357 Y93.712 E7.61736
G1 X70.645 Y92.82 E7.64853
G1 X71.008 Y91.955 E7.67973
G1 X71.443 Y91.124 E7.71093
G1 X71.947 Y90.334 E7.7421
G1 X72.517 Y89.589 E7.7733
G1 X73.149 Y88.895 E7.80452
G1 X73.837 Y88.258 E7.8357
G0 F6000 X74.225 Y88.454
G1 F1200 X74.961 Y87.901 E7.86632
G1 X75.742 Y87.413 E7.89695
G1 X76.562 Y86.995 E7.92756
G1 X77.416 Y86.65 E7.9582
G1 X78.296 Y86.38 E7.98881
G1 X79.196 Y86.188 E8.01942
G1 X80.11 Y86.074 E8.05006
G1 X80.663 Y86.044 E8.06848
G1 X80.984 Y86.035 E8.07916
G1 X81.281 Y86.031 E8.08904
G1 X84.244 Y86.031 E8.18759
G1 X85.097 Y86.042 E8.21596
G1 X86.016 Y86.095 E8.24658
G1 X86.785 Y86.202 E8.2724
G1 X87.501 Y86.352 E8.29673
G1 X88.692 Y86.646 E8.33753
G1 X89.241 Y86.788 E8.35639
G1 X91.715 Y87.355 E8.44081
G1 X94.232 Y87.86 E8.5262
G1 X96.673 Y88.273 E8.60854
G1 X99.18 Y88.629 E8.69276
G1 X101.707 Y88.913 E8.77733
G1 X104.252 Y89.127 E8.86228
G1 X106.737 Y89.266 E8.94506
G1 X109.275 Y89.335 E9.02951
G1 X111.822 Y89.333 E9.11422
G1 X114.304 Y89.26 E9.19681
G1 X116.863 Y89.113 E9.28206
G1 X119.367 Y88.897 E9.36565
G1 X121.922 Y88.606 E9.45118
G1 X124.382 Y88.252 E9.53385
G1 X126.875 Y87.823 E9.61798
G1 X129.353 Y87.325 E9.70205
G1 X131.834 Y86.751 E9.78675
G1 X133.317 Y86.374 E9.83764
G1 X134.217 Y86.184 E9.86823
G1 X135.131 Y86.073 E9.89886
G1 X135.63 Y86.046 E9.91548
G1 X135.957 Y86.036 E9.92636
G1 X136.281 Y86.031 E9.93714
G1 X139.381 Y86.032 E10.04024
G1 X140.079 Y86.041 E10.06346
G1 X140.998 Y86.093 E10.09408
G1 X141.909 Y86.224 E10.12469
G1 X142.805 Y86.434 E10.1553
G1 X143.68 Y86.721 E10.18592
G1 X144.527 Y87.083 E10.21656
G1 X145.339 Y87.517 E10.24718
G1 X146.11 Y88.019 E10.27778
G1 X146.835 Y88.587 E10.30842
G1 X147.508 Y89.216 E10.33905
G1 X148.123 Y89.9 E10.36965
G1 X148.677 Y90.635 E10.40026
G1 X149.165 Y91.416 E10.43089
G1 X149.584 Y92.236 E10.46152
G1 X149.93 Y93.089 E10.49213
G1 X150.2 Y93.969 E10.52275
G1 X150.393 Y94.87 E10.5534
G1 X150.507 Y95.783 E10.584
G1 X150.538 Y96.343 E10.60265
G1 X150.547 Y96.664 E10.61333
G1 X150.551 Y96.961 E10.62321
G1 X150.55 Y120.026 E11.39036
G1 X150.541 Y120.753 E11.41454
G1 X150.49 Y121.672 E11.44515
G1 X150.359 Y122.584 E11.4758
G1 X150.149 Y123.48 E11.50641
G1 X149.863 Y124.355 E11.53702
G1 X149.502 Y125.202 E11.56765
G1 X149.068 Y126.014 E11.59827
G1 X148.566 Y126.786 E11.6289
G1 X147.998 Y127.511 E11.65953
G1 X147.37 Y128.184 E11.69015
G1 X146.686 Y128.8 E11.72076
G1 X145.951 Y129.354 E11.75138
G1 X145.171 Y129.843 E11.782
G1 X144.351 Y130.262 E11.81262
G1 X143.498 Y130.608 E11.84324
G1 X142.618 Y130.879 E11.87386
G1 X141.718 Y131.072 E11.90448
G1 X140.804 Y131.187 E11.93512
G1 X140.239 Y131.218 E11.95394
G1 X139.918 Y131.227 E11.96462
G1 X139.621 Y131.231 E11.9745
G1 X81.521 Y131.23 E13.90691
G1 X80.823 Y131.221 E13.93013
G1 X79.904 Y131.169 E13.96074
G1 X78.993 Y131.038 E13.99136
G1 X78.097 Y130.828 E14.02197
G1 X77.222 Y130.541 E14.05259
G1 X76.375 Y130.179 E14.08323
G1 X75.563 Y129.745 E14.11385
G1 X74.792 Y129.243 E14.14445
G1 X74.067 Y128.675 E14.17509
G1 X73.394 Y128.046 E14.20572
G1 X72.779 Y127.362 E14.23632
G1 X72.225 Y126.627 E14.26693
G1 X71.737 Y125.846 E14.29756
G1 X71.318 Y125.026 E14.32819
G1 X70.972 Y124.173 E14.3588
G1 X70.702 Y123.293 E14.38942
G1 X70.509 Y122.392 E14.42007
G1 X70.395 Y121.479 E14.45067
G1 X70.364 Y120.908 E14.46969
G1 X70.355 Y120.575 E14.48077
G1 X70.351 Y120.289 E14.49028
G1 X70.352 Y97.162 E15.25949
G1 X70.361 Y96.497 E15.28161
G1 X70.413 Y95.577 E15.31226
G1 X70.545 Y94.666 E15.34287
G1 X70.756 Y93.77 E15.37349
G1 X71.043 Y92.895 E15.40412
G1 X71.406 Y92.049 E15.43474
G1 X71.84 Y91.237 E15.46536
G1 X72.343 Y90.466 E15.49598
G1 X72.912 Y89.742 E15.5266
G1 X73.54 Y89.07 E15.5572
G1 X74.225 Y88.454 E15.58784
G0 F6000 X74.613 Y88.655
G1 F1200 X75.345 Y88.125 E15.61789
G1 X76.12 Y87.662 E15.64792
G1 X76.933 Y87.269 E15.67796
G1 X77.778 Y86.949 E15.70801
G1 X78.647 Y86.706 E15.73802
G1 X79.535 Y86.54 E15.76807
G1 X80.674 Y86.444 E15.80608
G1 X80.995 Y86.435 E15.81676
G1 X81.281 Y86.431 E15.82628
G1 X84.389 Y86.432 E15.92965
G1 X85.091 Y86.442 E15.953
G1 X85.993 Y86.495 E15.98305
G1 X86.717 Y86.596 E16.00737
G1 X87.406 Y86.74 E16.03078
G1 X88.591 Y87.033 E16.07138
G1 X89.148 Y87.177 E16.09051
G1 X91.619 Y87.744 E16.17484
G1 X94.159 Y88.253 E16.261
G1 X96.628 Y88.671 E16.34428
G1 X99.146 Y89.028 E16.42887
G1 X101.662 Y89.311 E16.51308
G1 X104.197 Y89.524 E16.59769
G1 X106.739 Y89.666 E16.68237
G1 X109.265 Y89.735 E16.76642
G1 X111.799 Y89.733 E16.8507
G1 X114.374 Y89.658 E16.93638
G1 X116.887 Y89.513 E17.0201
G1 X119.408 Y89.296 E17.10426
G1 X121.952 Y89.005 E17.18943
G1 X124.441 Y88.648 E17.27306
G1 X126.951 Y88.216 E17.35777
G1 X129.45 Y87.713 E17.44255
G1 X131.926 Y87.14 E17.52708
G1 X133.416 Y86.762 E17.57821
G1 X134.3 Y86.576 E17.60825
G1 X135.642 Y86.446 E17.6531
G1 X135.969 Y86.436 E17.66398
G1 X136.281 Y86.431 E17.67436
G1 X139.376 Y86.432 E17.7773
G1 X140.074 Y86.441 E17.80052
G1 X140.975 Y86.492 E17.83053
G1 X141.869 Y86.624 E17.86059
G1 X142.747 Y86.833 E17.89061
G1 X143.604 Y87.12 E17.92067
G1 X144.431 Y87.481 E17.95068
G1 X145.224 Y87.914 E17.98073
G1 X145.975 Y88.415 E18.01076
G1 X146.679 Y88.981 E18.0408
G1 X147.33 Y89.607 E18.07084
G1 X147.923 Y90.288 E18.10087
G1 X148.453 Y91.019 E18.1309
G1 X148.917 Y91.794 E18.16095
G1 X149.311 Y92.607 E18.191
G1 X149.631 Y93.451 E18.22102
G1 X149.875 Y94.321 E18.25107
G1 X150.041 Y95.209 E18.28112
G1 X150.138 Y96.354 E18.31934
G1 X150.147 Y96.675 E18.33002
G1 X150.151 Y96.961 E18.33953
G1 X150.15 Y120.021 E19.10651
G1 X150.141 Y120.748 E19.13069
G1 X150.09 Y121.65 E19.16074
G1 X149.959 Y122.544 E19.19079
G1 X149.75 Y123.422 E19.22081
G1 X149.464 Y124.279 E19.25086
G1 X149.103 Y125.107 E19.2809
G1 X148.671 Y125.899 E19.31091
G1 X148.17 Y126.651 E19.34096
G1 X147.604 Y127.355 E19.37101
G1 X146.979 Y128.006 E19.40102
G1 X146.298 Y128.6 E19.43108
G1 X145.567 Y129.131 E19.46113
G1 X144.793 Y129.595 E19.49114
G1 X143.98 Y129.989 E19.52119
G1 X143.136 Y130.309 E19.55121
G1 X142.266 Y130.554 E19.58128
G1 X141.379 Y130.72 E19.61129
G1 X140.228 Y130.818 E19.64971
G1 X139.907 Y130.827 E19.66039
G1 X139.621 Y130.831 E19.6699
G1 X81.526 Y130.83 E21.60215
G1 X80.828 Y130.821 E21.62537
G1 X79.927 Y130.77 E21.65538
G1 X79.033 Y130.638 E21.68544
G1 X78.155 Y130.429 E21.71546
G1 X77.298 Y130.142 E21.74552
G1 X76.471 Y129.781 E21.77553
G1 X75.678 Y129.348 E21.80558
G1 X74.927 Y128.847 E21.83561
G1 X74.223 Y128.281 E21.86565
G1 X73.572 Y127.655 E21.89569
G1 X72.979 Y126.974 E21.92573
G1 X72.449 Y126.243 E21.95576
G1 X71.985 Y125.468 E21.9858
G1 X71.591 Y124.655 E22.01585
G1 X71.271 Y123.811 E22.04587
G1 X71.027 Y122.941 E22.07592
G1 X70.861 Y122.053 E22.10597
G1 X70.764 Y120.898 E22.14452
G1 X70.755 Y120.565 E22.1556
G1 X70.751 Y120.289 E22.16478
G1 X70.752 Y97.167 E22.93382
G1 X70.761 Y96.502 E22.95594
G1 X70.813 Y95.6 E22.98599
G1 X70.945 Y94.707 E23.01602
G1 X71.155 Y93.829 E23.04604
G1 X71.442 Y92.972 E23.0761
G1 X71.804 Y92.145 E23.10613
G1 X72.237 Y91.353 E23.13615
G1 X72.739 Y90.602 E23.1662
G1 X73.306 Y89.898 E23.19626
G1 X73.932 Y89.248 E23.22628
G1 X74.613 Y88.655 E23.25631
G1 F2700 E18.25631
;MESH:Car v6.3mf(4)
G0 F6000 X81.365 Y95.966
G0 X81.365 Y97.045
G0 X84.169 Y97.413
G0 X84.351 Y117.231
;TYPE:WALL-INNER
G1 F2700 E23.25631
G1 F1200 X136.551 Y117.231 E24.99249
G1 X136.551 Y97.231 E25.65769
G1 X139.351 Y97.231 E25.75082
G1 X139.351 Y120.031 E26.50915
G1 X81.551 Y120.031 E28.43159
G1 X81.551 Y97.231 E29.18992
G1 X84.351 Y97.231 E29.28305
G1 X84.351 Y117.231 E29.94825
G0 F6000 X84.751 Y116.831
;TYPE:WALL-OUTER
G1 F1200 X136.151 Y116.831 E31.65782
G1 X136.151 Y96.831 E32.32302
G1 X139.751 Y96.831 E32.44276
G1 X139.751 Y120.431 E33.2277
G1 X81.151 Y120.431 E35.17674
G1 X81.151 Y96.831 E35.96168
G1 X84.751 Y96.831 E36.08142
G1 X84.751 Y116.831 E36.74662
G0 F6000 X84.451 Y116.831
G0 X84.211 Y117.371
G0 X83.961 Y117.621
;TYPE:SKIN
G1 F1200 X136.941 Y117.621 E38.50874
G1 X136.941 Y97.621 E39.17394
G1 X138.961 Y97.621 E39.24113
G1 X138.961 Y119.641 E39.97352
G1 X81.941 Y119.641 E41.87001
G1 X81.941 Y97.621 E42.6024
G1 X83.961 Y97.621 E42.66959
G1 X83.961 Y117.621 E43.33479
G1 F2700 E38.33479
G0 F6000 X84.211 Y117.371
G0 X84.169 Y97.413
G0 X81.733 Y97.413
G0 X81.733 Y119.849
G0 X82.71 Y119.921
G1 F2700 E43.33479
G0 F6000 X82.71 Y119.479
G1 F1200 X82.1 Y118.87 E43.36346
G0 F6000 X82.1 Y118.304
G1 F1200 X83.275 Y119.479 E43.41873
G0 F6000 X83.841 Y119.479
G1 F1200 X82.1 Y117.738 E43.50062
G0 F6000 X82.1 Y117.173
G1 F1200 X84.407 Y119.479 E43.60911
G0 F6000 X84.973 Y119.479
G1 F1200 X82.1 Y116.607 E43.74422
G0 F6000 X82.1 Y116.041
G1 F1200 X83.8 Y117.741 E43.82418
G0 F6000 X83.839 Y117.78
G1 F1200 X85.538 Y119.479 E43.9041
G0 F6000 X86.104 Y119.479
G1 F1200 X84.405 Y117.78 E43.98402
G0 F6000 X84.97 Y117.78
G1 F1200 X86.67 Y119.479 E44.06395
G0 F6000 X87.235 Y119.479
G1 F1200 X85.536 Y117.78 E44.14387
G0 F6000 X86.102 Y117.78
G1 F1200 X87.801 Y119.479 E44.22379
G0 F6000 X88.367 Y119.479
G1 F1200 X86.667 Y117.78 E44.30373
G0 F6000 X87.233 Y117.78
G1 F1200 X88.932 Y119.479 E44.38364
G0 F6000 X89.498 Y119.479
G1 F1200 X87.799 Y117.78 E44.46356
G0 F6000 X88.365 Y117.78
G1 F1200 X90.064 Y119.479 E44.54347
G0 F6000 X90.629 Y119.479
G1 F1200 X88.93 Y117.78 E44.62339
G0 F6000 X89.496 Y117.78
G1 F1200 X91.195 Y119.479 E44.7033
G0 F6000 X91.761 Y119.479
G1 F1200 X90.062 Y117.78 E44.78322
G0 F6000 X90.627 Y117.78
G1 F1200 X92.326 Y119.479 E44.86314
G0 F6000 X92.892 Y119.479
G1 F1200 X91.193 Y117.78 E44.94305
G0 F6000 X91.759 Y117.78
G1 F1200 X93.458 Y119.479 E45.02297
G0 F6000 X94.023 Y119.479
G1 F1200 X92.324 Y117.78 E45.10288
G0 F6000 X92.89 Y117.78
G1 F1200 X94.589 Y119.479 E45.1828
G0 F6000 X95.155 Y119.479
G1 F1200 X93.456 Y117.78 E45.26271
G0 F6000 X94.021 Y117.78
G1 F1200 X95.721 Y119.479 E45.34265
G0 F6000 X96.286 Y119.479
G1 F1200 X94.587 Y117.78 E45.42257
G0 F6000 X95.153 Y117.78
G1 F1200 X96.852 Y119.479 E45.50248
G0 F6000 X97.418 Y119.479
G1 F1200 X95.718 Y117.78 E45.58242
G0 F6000 X96.284 Y117.78
G1 F1200 X97.983 Y119.479 E45.66234
G0 F6000 X98.549 Y119.479
G1 F1200 X96.85 Y117.78 E45.74226
G0 F6000 X97.415 Y117.78
G1 F1200 X99.115 Y119.479 E45.82219
G0 F6000 X99.68 Y119.479
G1 F1200 X97.981 Y117.78 E45.90211
G0 F6000 X98.547 Y117.78
G1 F1200 X100.246 Y119.479 E45.98203
G0 F6000 X100.812 Y119.479
G1 F1200 X99.113 Y117.78 E46.06194
G0 F6000 X99.678 Y117.78
G1 F1200 X101.377 Y119.479 E46.14186
G0 F6000 X101.943 Y119.479
G1 F1200 X100.244 Y117.78 E46.22177
G0 F6000 X100.81 Y117.78
G1 F1200 X102.509 Y119.479 E46.30169
G0 F6000 X103.074 Y119.479
G1 F1200 X101.375 Y117.78 E46.38161
G0 F6000 X101.941 Y117.78
G1 F1200 X103.64 Y119.479 E46.46152
G0 F6000 X104.206 Y119.479
G1 F1200 X102.507 Y117.78 E46.54144
G0 F6000 X103.072 Y117.78
G1 F1200 X104.772 Y119.479 E46.62138
G0 F6000 X105.337 Y119.479
G1 F1200 X103.638 Y117.78 E46.70129
G0 F6000 X104.204 Y117.78
G1 F1200 X105.903 Y119.479 E46.78121
G0 F6000 X106.469 Y119.479
G1 F1200 X104.769 Y117.78 E46.86115
G0 F6000 X105.335 Y117.78
G1 F1200 X107.034 Y119.479 E46.94106
G0 F6000 X107.6 Y119.479
G1 F1200 X105.901 Y117.78 E47.02098
G0 F6000 X106.466 Y117.78
G1 F1200 X108.166 Y119.479 E47.10092
G0 F6000 X108.731 Y119.479
G1 F1200 X107.032 Y117.78 E47.18083
G0 F6000 X107.598 Y117.78
G1 F1200 X109.297 Y119.479 E47.26075
G0 F6000 X109.863 Y119.479
G1 F1200 X108.164 Y117.78 E47.34066
