;FLAVOR:Marlin
;TIME:12543
;Filament used: 14.1856m
;Layer height: 0.2
;MINX:21.386
;MINY:44.095
;MINZ:0.2
;MAXX:193.386
;MAXY:186.095
;MAXZ:11
;Generated with Cura_SteamEngine 4.12.1
M140 S50
M105
M190 S50
M104 S200
M105
M109 S200
M82 ;absolute extrusion mode
M201 X500.00 Y500.00 Z100.00 E5000.00 ;Setup machine max acceleration
M203 X500.00 Y500.00 Z10.00 E50.00 ;Setup machine max feedrate
M204 P500.00 R1000.00 T500.00 ;Setup Print/Retract/Travel acceleration
M205 X8.00 Y8.00 Z0.40 E5.00 ;Setup Jerk
M220 S100 ;Reset Feedrate
M221 S100 ;Reset Flowrate

G28 ;Home

G92 E0 ;Reset Extruder
G1 Z2.0 F3000 ;Move Z Axis up
G1 X10.1 Y20 Z0.28 F5000.0 ;Move to start position
G1 X10.1 Y200.0 Z0.28 F1500.0 E15 ;Draw the first line
G1 X10.4 Y200.0 Z0.28 F5000.0 ;Move to side a little
G1 X10.4 Y20 Z0.28 F1500.0 E30 ;Draw the second line
G92 E0 ;Reset Extruder
G1 Z2.0 F3000 ;Move Z Axis up

G92 E0
G92 E0
G1 F2700 E-5
;LAYER_COUNT:55
;LAYER:0
M107
G0 F6000 X41.294 Y54.689 Z0.2
;TYPE:SKIRT
G1 F2700 E0
G1 F1200 X42.392 Y53.873 E0.0455
G1 X43.299 Y53.224 E0.08259
G1 X43.712 Y52.937 E0.09932
G1 X44.005 Y52.74 E0.11107
G1 X44.969 Y52.115 E0.14928
G1 X45.145 Y52.003 E0.15622
G1 X46.09 Y51.417 E0.1932
G1 X46.537 Y51.148 E0.21055
G1 X46.846 Y50.969 E0.22243
G1 X47.847 Y50.41 E0.26056
G1 X48.894 Y49.848 E0.30008
G1 X49.451 Y49.559 E0.32096
G1 X49.775 Y49.398 E0.33299
G1 X50.807 Y48.907 E0.371
G1 X50.997 Y48.819 E0.37796
G1 X52.039 Y48.349 E0.41598
G1 X52.502 Y48.148 E0.43277
G1 X52.807 Y48.021 E0.44376
G1 X53.885 Y47.591 E0.48236
G1 X54.094 Y47.51 E0.48982
G1 X55.143 Y47.117 E0.52708
G1 X55.6 Y46.952 E0.54324
G1 X55.951 Y46.832 E0.55557
G1 X57.185 Y46.434 E0.5987
G1 X58.195 Y46.127 E0.63381
G1 X58.777 Y45.959 E0.65396
G1 X59.108 Y45.87 E0.66536
G1 X60.445 Y45.533 E0.71122
G1 X61.539 Y45.28 E0.74856
G1 X62.018 Y45.175 E0.76487
G1 X62.382 Y45.102 E0.77722
G1 X63.704 Y44.86 E0.82192
G1 X64.666 Y44.701 E0.85435
G1 X65.3 Y44.605 E0.87568
G1 X65.648 Y44.558 E0.88736
G1 X67.025 Y44.397 E0.93347
G1 X68.161 Y44.287 E0.97143
G1 X68.622 Y44.248 E0.98682
G1 X68.991 Y44.223 E0.99912
G1 X70.132 Y44.165 E1.03712
G1 X71.231 Y44.127 E1.07369
G1 X71.414 Y44.122 E1.07978
G1 X72.996 Y44.096 E1.13241
G1 X156.348 Y44.095 E3.9047
G1 X156.58 Y44.097 E3.91242
G1 X158.664 Y44.141 E3.98175
G1 X159.143 Y44.158 E3.99769
G1 X160.111 Y44.212 E4.02994
G1 X160.694 Y44.261 E4.0494
G1 X161.494 Y44.35 E4.07617
G1 X162.156 Y44.432 E4.09836
G1 X163.012 Y44.551 E4.1271
G1 X163.357 Y44.604 E4.13871
G1 X163.686 Y44.663 E4.14983
G1 X164.38 Y44.8 E4.17335
G1 X165.222 Y44.978 E4.20198
G1 X165.924 Y45.135 E4.2259
G1 X166.507 Y45.283 E4.24591
G1 X167.298 Y45.507 E4.27325
G1 X168.163 Y45.766 E4.30329
G1 X168.857 Y45.985 E4.32749
G1 X169.402 Y46.172 E4.34665
G1 X170.146 Y46.452 E4.37309
G1 X170.755 Y46.691 E4.39485
G1 X171.557 Y47.017 E4.42365
G1 X172.081 Y47.245 E4.44265
G1 X172.838 Y47.601 E4.47048
G1 X173.514 Y47.931 E4.4955
G1 X174.272 Y48.315 E4.52376
G1 X174.808 Y48.605 E4.54403
G1 X175.518 Y49.017 E4.57133
G1 X176.214 Y49.433 E4.5983
G1 X176.881 Y49.845 E4.62438
G1 X177.367 Y50.164 E4.64371
G1 X177.974 Y50.586 E4.6683
G1 X178.67 Y51.085 E4.69678
G1 X179.24 Y51.504 E4.72031
G1 X179.707 Y51.867 E4.73999
G1 X180.379 Y52.42 E4.76893
G1 X180.964 Y52.917 E4.79446
G1 X181.581 Y53.455 E4.82169
G1 X182.034 Y53.873 E4.84219
G1 X182.542 Y54.37 E4.86583
G1 X183.189 Y55.018 E4.89628
G1 X183.697 Y55.541 E4.92053
G1 X184.114 Y55.995 E4.94104
G1 X184.583 Y56.537 E4.96488
G1 X185.147 Y57.205 E4.99395
G1 X185.58 Y57.73 E5.01659
G1 X185.812 Y58.021 E5.02897
G1 X186.019 Y58.295 E5.04039
G1 X186.434 Y58.862 E5.06376
G1 X186.934 Y59.565 E5.09245
G1 X187.385 Y60.218 E5.11885
G1 X187.711 Y60.719 E5.13873
G1 X188.111 Y61.372 E5.1642
G1 X188.533 Y62.084 E5.19173
G1 X188.883 Y62.689 E5.21497
G1 X189.163 Y63.203 E5.23444
G1 X189.508 Y63.883 E5.2598
G1 X189.928 Y64.743 E5.29163
G1 X190.201 Y65.32 E5.31286
G1 X190.4 Y65.764 E5.32905
G1 X190.701 Y66.501 E5.35553
G1 X191.022 Y67.317 E5.38469
G1 X191.319 Y68.109 E5.41282
G1 X191.505 Y68.651 E5.43188
G1 X191.772 Y69.502 E5.46155
G1 X191.959 Y70.13 E5.48334
G1 X192.21 Y71.02 E5.5141
G1 X192.356 Y71.596 E5.53386
G1 X192.514 Y72.31 E5.55818
G1 X192.689 Y73.145 E5.58656
G1 X192.83 Y73.866 E5.61099
G1 X192.905 Y74.293 E5.62541
G1 X192.943 Y74.548 E5.63399
G1 X193.038 Y75.243 E5.65732
G1 X193.142 Y76.075 E5.68521
G1 X193.227 Y76.845 E5.71097
G1 X193.277 Y77.457 E5.7314
G1 X193.317 Y78.216 E5.75668
G1 X193.341 Y78.815 E5.77661
G1 X193.384 Y80.917 E5.84654
G1 X193.386 Y81.142 E5.85403
G1 X193.386 Y149.045 E8.11249
G1 X193.384 Y149.274 E8.12011
G1 X193.34 Y151.383 E8.19027
G1 X193.324 Y151.837 E8.20538
G1 X193.269 Y152.83 E8.23845
G1 X193.22 Y153.417 E8.25804
G1 X193.134 Y154.182 E8.28365
G1 X193.034 Y154.969 E8.31004
G1 X192.925 Y155.754 E8.3364
G1 X192.823 Y156.365 E8.357
G1 X192.672 Y157.126 E8.3828
G1 X192.504 Y157.928 E8.41006
G1 X192.347 Y158.631 E8.43401
G1 X192.2 Y159.213 E8.45398
G1 X191.983 Y159.978 E8.48043
G1 X191.725 Y160.841 E8.51039
G1 X191.522 Y161.491 E8.53304
G1 X191.329 Y162.056 E8.55289
G1 X191.04 Y162.826 E8.58025
G1 X190.742 Y163.585 E8.60737
G1 X190.465 Y164.267 E8.63185
G1 X190.235 Y164.794 E8.65098
G1 X189.888 Y165.533 E8.67813
G1 X189.567 Y166.189 E8.70242
G1 X189.152 Y167.007 E8.73293
G1 X188.872 Y167.523 E8.75245
G1 X188.476 Y168.207 E8.77874
G1 X188.06 Y168.903 E8.80571
G1 X187.661 Y169.552 E8.83105
G1 X187.32 Y170.073 E8.85176
G1 X186.89 Y170.689 E8.87675
G1 X186.436 Y171.325 E8.90274
G1 X185.962 Y171.971 E8.92939
G1 X185.576 Y172.467 E8.95029
G1 X185.086 Y173.058 E8.97582
G1 X184.51 Y173.737 E9.00544
G1 X184.005 Y174.314 E9.03094
G1 X183.611 Y174.74 E9.05024
G1 X183.137 Y175.226 E9.07282
G1 X182.463 Y175.897 E9.10445
G1 X181.939 Y176.406 E9.12875
G1 X181.474 Y176.833 E9.14975
G1 X180.95 Y177.286 E9.17279
G1 X180.261 Y177.868 E9.20278
G1 X179.694 Y178.334 E9.2272
G1 X179.219 Y178.703 E9.2472
G1 X178.575 Y179.175 E9.27376
G1 X177.898 Y179.656 E9.30138
G1 X177.322 Y180.055 E9.32468
G1 X177.021 Y180.257 E9.33674
G1 X176.751 Y180.427 E9.34735
G1 X176.11 Y180.819 E9.37234
G1 X175.525 Y181.168 E9.395
G1 X174.732 Y181.626 E9.42546
G1 X174.193 Y181.918 E9.44585
G1 X173.574 Y182.229 E9.46889
G1 X172.729 Y182.641 E9.50016
G1 X172.158 Y182.911 E9.52116
G1 X171.761 Y183.09 E9.53565
G1 X171.509 Y183.196 E9.54474
G1 X170.804 Y183.481 E9.57003
G1 X170.015 Y183.788 E9.59819
G1 X169.375 Y184.027 E9.62091
G1 X169.025 Y184.151 E9.63326
G1 X168.732 Y184.247 E9.64352
G1 X167.969 Y184.484 E9.67009
G1 X167.188 Y184.715 E9.69718
G1 X166.429 Y184.928 E9.7234
G1 X165.843 Y185.075 E9.74349
G1 X165.141 Y185.23 E9.76741
G1 X164.314 Y185.402 E9.7955
G1 X163.523 Y185.555 E9.8223
G1 X162.925 Y185.653 E9.84245
G1 X162.206 Y185.751 E9.86659
G1 X161.365 Y185.855 E9.89477
G1 X160.587 Y185.94 E9.9208
G1 X159.985 Y185.989 E9.94089
G1 X159.234 Y186.028 E9.9659
G1 X158.674 Y186.049 E9.98454
G1 X156.565 Y186.093 E10.0547
G1 X156.336 Y186.095 E10.06232
G1 X73.044 Y186.094 E12.83262
G1 X71.366 Y186.067 E12.88844
G1 X70.138 Y186.028 E12.9293
G1 X69.488 Y185.999 E12.95094
G1 X69.124 Y185.976 E12.96308
G1 X67.952 Y185.882 E13.00218
G1 X67.751 Y185.864 E13.00889
G1 X66.647 Y185.754 E13.04579
G1 X66.136 Y185.696 E13.0629
G1 X65.794 Y185.652 E13.07437
G1 X64.666 Y185.488 E13.11228
G1 X63.483 Y185.294 E13.15215
G1 X62.87 Y185.185 E13.17286
G1 X62.52 Y185.116 E13.18473
G1 X61.167 Y184.826 E13.23075
G1 X60.119 Y184.58 E13.26655
G1 X59.56 Y184.441 E13.28571
G1 X59.214 Y184.349 E13.29762
G1 X58.177 Y184.055 E13.33347
G1 X57.986 Y183.999 E13.34009
G1 X56.862 Y183.657 E13.37917
G1 X56.403 Y183.51 E13.3952
G1 X56.074 Y183.399 E13.40674
G1 X54.943 Y182.997 E13.44667
G1 X54.754 Y182.928 E13.45336
G1 X53.751 Y182.55 E13.48901
G1 X53.275 Y182.364 E13.50601
G1 X52.919 Y182.217 E13.51882
G1 X51.702 Y181.69 E13.56293
G1 X50.63 Y181.203 E13.60209
G1 X50.234 Y181.017 E13.61664
G1 X49.908 Y180.857 E13.62872
G1 X48.695 Y180.236 E13.67404
G1 X47.706 Y179.706 E13.71136
G1 X47.256 Y179.458 E13.72845
G1 X46.923 Y179.267 E13.74122
G1 X45.969 Y178.697 E13.77818
G1 X44.957 Y178.069 E13.8178
G1 X44.462 Y177.754 E13.83731
G1 X44.131 Y177.534 E13.85053
G1 X43.125 Y176.84 E13.89118
G1 X42.967 Y176.729 E13.8976
G1 X42.048 Y176.07 E13.93521
G1 X41.687 Y175.803 E13.95015
G1 X41.408 Y175.59 E13.96182
G1 X40.493 Y174.867 E14.00061
G1 X39.593 Y174.131 E14.03928
G1 X39.088 Y173.705 E14.06125
G1 X38.826 Y173.477 E14.07281
G1 X37.958 Y172.694 E14.11169
G1 X37.12 Y171.911 E14.14983
G1 X36.633 Y171.445 E14.17225
G1 X36.371 Y171.183 E14.18457
G1 X35.59 Y170.38 E14.22183
G1 X35.439 Y170.222 E14.2291
G1 X34.644 Y169.371 E14.26783
G1 X34.335 Y169.032 E14.28309
G1 X34.094 Y168.758 E14.29523
G1 X33.242 Y167.756 E14.33897
G1 X32.482 Y166.829 E14.37884
G1 X32.196 Y166.47 E14.39411
G1 X31.983 Y166.193 E14.40573
G1 X31.299 Y165.276 E14.44378
G1 X31.17 Y165.1 E14.45104
G1 X30.517 Y164.185 E14.48843
G1 X30.23 Y163.772 E14.50515
G1 X30.032 Y163.477 E14.51697
G1 X29.284 Y162.32 E14.56279
G1 X28.704 Y161.384 E14.59942
G1 X28.424 Y160.918 E14.6175
G1 X28.255 Y160.626 E14.62872
G1 X27.624 Y159.496 E14.67177
G1 X27.05 Y158.42 E14.71233
G1 X26.855 Y158.042 E14.72648
G1 X26.696 Y157.72 E14.73842
G1 X26.106 Y156.476 E14.78421
G1 X25.715 Y155.614 E14.8157
G1 X25.439 Y154.98 E14.83869
G1 X25.31 Y154.672 E14.8498
G1 X24.881 Y153.596 E14.88833
G1 X24.801 Y153.388 E14.89574
G1 X24.408 Y152.339 E14.933
G1 X24.243 Y151.882 E14.94916
G1 X24.123 Y151.531 E14.9615
G1 X23.725 Y150.297 E15.00462
G1 X23.418 Y149.287 E15.03973
G1 X23.25 Y148.705 E15.05988
G1 X23.161 Y148.374 E15.07128
G1 X22.824 Y147.037 E15.11714
G1 X22.57 Y145.937 E15.15469
G1 X22.462 Y145.443 E15.17151
G1 X22.391 Y145.093 E15.18338
G1 X22.191 Y144.011 E15.21998
G1 X22.154 Y143.798 E15.22717
G1 X21.965 Y142.646 E15.266
G1 X21.896 Y142.191 E15.28131
G1 X21.847 Y141.825 E15.29359
G1 X21.711 Y140.667 E15.33237
G1 X21.688 Y140.454 E15.33949
G1 X21.577 Y139.309 E15.37775
G1 X21.539 Y138.86 E15.39274
G1 X21.514 Y138.49 E15.40508
G1 X21.456 Y137.349 E15.44307
G1 X21.418 Y136.25 E15.47965
G1 X21.413 Y136.067 E15.48574
G1 X21.387 Y134.486 E15.53833
G1 X21.386 Y95.886 E16.82217
G1 X21.387 Y95.706 E16.82816
G1 X21.413 Y94.121 E16.88088
G1 X21.456 Y92.796 E16.92498
G1 X21.482 Y92.201 E16.94478
G1 X21.505 Y91.834 E16.95701
G1 X21.595 Y90.699 E16.99488
G1 X21.714 Y89.476 E17.03575
G1 X21.781 Y88.871 E17.056
G1 X21.827 Y88.517 E17.06787
G1 X21.995 Y87.369 E17.10646
G1 X22.026 Y87.17 E17.11316
G1 X22.215 Y86.031 E17.15156
G1 X22.302 Y85.548 E17.16788
G1 X22.371 Y85.199 E17.17972
G1 X22.602 Y84.118 E17.21648
G1 X22.877 Y82.93 E17.25704
G1 X23.029 Y82.311 E17.27824
G1 X23.125 Y81.95 E17.29066
G1 X23.486 Y80.682 E17.33451
G1 X23.782 Y79.707 E17.3684
G1 X23.968 Y79.121 E17.38885
G1 X24.087 Y78.767 E17.40127
G1 X24.541 Y77.495 E17.44619
G1 X24.931 Y76.46 E17.48298
G1 X25.117 Y75.984 E17.49998
G1 X25.264 Y75.628 E17.51279
G1 X25.791 Y74.411 E17.5569
G1 X26.278 Y73.339 E17.59606
G1 X26.464 Y72.943 E17.61061
G1 X26.624 Y72.617 E17.62269
G1 X27.245 Y71.404 E17.66801
G1 X27.769 Y70.426 E17.70492
G1 X28.013 Y69.982 E17.72177
G1 X28.212 Y69.635 E17.73507
G1 X28.786 Y68.675 E17.77227
G1 X29.412 Y67.666 E17.81177
G1 X29.722 Y67.178 E17.831
G1 X29.947 Y66.839 E17.84453
G1 X30.753 Y65.674 E17.89165
G1 X31.415 Y64.752 E17.9294
G1 X31.67 Y64.407 E17.94367
G1 X31.885 Y64.125 E17.95546
G1 X32.623 Y63.191 E17.99505
G1 X33.374 Y62.273 E18.0345
G1 X33.778 Y61.794 E18.05534
G1 X34.002 Y61.537 E18.06668
G1 X34.772 Y60.683 E18.10493
G1 X35.572 Y59.827 E18.1439
G1 X36.043 Y59.337 E18.1665
G1 X36.289 Y59.09 E18.1781
G1 X37.27 Y58.138 E18.22356
G1 X37.972 Y57.48 E18.25557
G1 X38.458 Y57.037 E18.27744
G1 X38.727 Y56.8 E18.28936
G1 X39.591 Y56.064 E18.32711
G1 X39.748 Y55.933 E18.33391
G1 X40.626 Y55.214 E18.37166
G1 X40.999 Y54.916 E18.38754
G1 X41.294 Y54.689 E18.39992
G0 F6000 X41.533 Y55.009
G1 F1200 X42.47 Y54.311 E18.43878
G1 X43.399 Y53.643 E18.47684
G1 X43.94 Y53.265 E18.49879
G1 X44.223 Y53.076 E18.51011
G1 X45.356 Y52.343 E18.55499
G1 X46.296 Y51.76 E18.59178
G1 X46.743 Y51.491 E18.60913
G1 X47.041 Y51.318 E18.62059
G1 X48.21 Y50.667 E18.66509
G1 X49.217 Y50.13 E18.70305
G1 X49.635 Y49.914 E18.7187
G1 X49.947 Y49.759 E18.73029
G1 X50.979 Y49.268 E18.7683
G1 X51.162 Y49.183 E18.77501
G1 X52.048 Y48.782 E18.80736
G1 X52.661 Y48.515 E18.82959
G1 X52.955 Y48.392 E18.84019
G1 X54.033 Y47.962 E18.8788
G1 X54.235 Y47.884 E18.886
G1 X55.279 Y47.493 E18.92308
G1 X55.736 Y47.328 E18.93924
G1 X56.074 Y47.213 E18.95111
G1 X57.301 Y46.817 E18.99399
G1 X58.311 Y46.51 E19.02911
G1 X58.887 Y46.344 E19.04904
G1 X59.206 Y46.258 E19.06003
G1 X60.331 Y45.973 E19.09863
G1 X60.536 Y45.923 E19.10565
G1 X61.624 Y45.671 E19.14279
G1 X62.103 Y45.566 E19.1591
G1 X62.455 Y45.495 E19.17105
G1 X63.58 Y45.288 E19.20909
G1 X63.769 Y45.255 E19.21547
G1 X64.881 Y45.072 E19.25296
G1 X65.359 Y45 E19.26904
G1 X65.695 Y44.955 E19.28031
G1 X66.855 Y44.818 E19.31916
G1 X68.054 Y44.699 E19.35924
G1 X68.655 Y44.647 E19.3793
G1 X69.011 Y44.623 E19.39117
G1 X70.339 Y44.557 E19.43539
G1 X71.421 Y44.522 E19.4714
G1 X73.003 Y44.496 E19.52402
G1 X156.348 Y44.495 E22.29609
G1 X156.572 Y44.497 E22.30354
G1 X158.656 Y44.541 E22.37287
G1 X159.127 Y44.558 E22.38854
G1 X159.32 Y44.567 E22.39497
G1 X160.089 Y44.611 E22.42059
G1 X160.65 Y44.658 E22.43931
G1 X161.445 Y44.747 E22.46592
G1 X162.107 Y44.829 E22.48811
G1 X162.957 Y44.947 E22.51665
G1 X163.292 Y44.999 E22.52792
G1 X163.61 Y45.056 E22.53867
G1 X164.298 Y45.192 E22.56199
G1 X165.135 Y45.369 E22.59045
G1 X165.837 Y45.526 E22.61437
G1 X166.399 Y45.668 E22.63365
G1 X167.184 Y45.89 E22.66079
G1 X168.043 Y46.147 E22.69061
G1 X168.737 Y46.366 E22.71481
G1 X169.261 Y46.547 E22.73325
G1 X169.999 Y46.825 E22.75948
G1 X170.725 Y47.11 E22.78542
G1 X171.407 Y47.387 E22.80991
G1 X171.911 Y47.607 E22.8282
G1 X172.662 Y47.96 E22.8558
G1 X173.484 Y48.363 E22.88625
G1 X174.091 Y48.671 E22.90888
G1 X174.607 Y48.951 E22.92841
G1 X175.313 Y49.361 E22.95557
G1 X176.004 Y49.774 E22.98234
G1 X176.671 Y50.186 E23.00842
G1 X177.139 Y50.493 E23.02703
G1 X177.741 Y50.911 E23.05141
G1 X178.433 Y51.407 E23.07973
G1 X179.003 Y51.826 E23.10325
G1 X179.454 Y52.176 E23.12224
G1 X180.12 Y52.725 E23.15095
G1 X180.581 Y53.115 E23.17103
G1 X181.318 Y53.757 E23.20354
G1 X181.755 Y54.159 E23.22329
G1 X182.167 Y54.561 E23.24244
G1 X182.902 Y55.296 E23.27701
G1 X183.41 Y55.819 E23.30126
G1 X183.811 Y56.257 E23.32101
G1 X184.278 Y56.796 E23.34473
G1 X184.839 Y57.459 E23.37362
G1 X185.272 Y57.984 E23.39625
G1 X185.497 Y58.267 E23.40828
G1 X185.697 Y58.531 E23.41929
G1 X186.109 Y59.095 E23.44252
G1 X186.605 Y59.792 E23.47098
G1 X187.056 Y60.445 E23.49737
G1 X187.37 Y60.928 E23.51653
G1 X187.767 Y61.577 E23.54184
G1 X188.187 Y62.284 E23.56919
G1 X188.537 Y62.889 E23.59243
G1 X188.807 Y63.385 E23.61122
G1 X189.149 Y64.059 E23.63635
G1 X189.567 Y64.915 E23.66804
G1 X189.84 Y65.492 E23.68927
G1 X190.032 Y65.922 E23.70493
G1 X190.117 Y66.126 E23.71228
G1 X190.378 Y66.771 E23.73543
G1 X190.71 Y67.622 E23.76581
G1 X190.944 Y68.249 E23.78807
G1 X191.124 Y68.771 E23.80643
G1 X191.34 Y69.457 E23.83035
G1 X191.575 Y70.244 E23.85767
G1 X191.825 Y71.129 E23.88826
G1 X191.965 Y71.683 E23.90726
G1 X192.123 Y72.392 E23.93142
G1 X192.296 Y73.222 E23.95962
G1 X192.437 Y73.943 E23.98406
G1 X192.51 Y74.357 E23.99804
G1 X192.547 Y74.603 E24.00631
G1 X192.641 Y75.292 E24.02944
G1 X192.744 Y76.119 E24.05716
G1 X192.829 Y76.889 E24.08293
G1 X192.877 Y77.479 E24.10261
G1 X192.918 Y78.234 E24.12776
G1 X192.933 Y78.576 E24.13915
