;FLAVOR:Marlin
;TIME:3081
;Filament used: 2.34721m
;Layer height: 0.2
;MINX:51.836
;MINY:86.18
;MINZ:0.2
;MAXX:146.836
;MAXY:138.18
;MAXZ:25
;Generated with Cura_SteamEngine 4.12.1
M140 S50
M105
M190 S50
M104 S200
M105
M109 S200
M82 ;absolute extrusion mode
M201 X500.00 Y500.00 Z100.00 E5000.00 ;Setup machine max acceleration
M203 X500.00 Y500.00 Z10.00 E50.00 ;Setup machine max feedrate
M204 P500.00 R1000.00 T500.00 ;Setup Print/Retract/Travel acceleration
M205 X8.00 Y8.00 Z0.40 E5.00 ;Setup Jerk
M220 S100 ;Reset Feedrate
M221 S100 ;Reset Flowrate

G28 ;Home

G92 E0 ;Reset Extruder
G1 Z2.0 F3000 ;Move Z Axis up
G1 X10.1 Y20 Z0.28 F5000.0 ;Move to start position
G1 X10.1 Y200.0 Z0.28 F1500.0 E15 ;Draw the first line
G1 X10.4 Y200.0 Z0.28 F5000.0 ;Move to side a little
G1 X10.4 Y20 Z0.28 F1500.0 E30 ;Draw the second line
G92 E0 ;Reset Extruder
G1 Z2.0 F3000 ;Move Z Axis up

G92 E0
G92 E0
G1 F2700 E-5
;LAYER_COUNT:125
;LAYER:0
M107
G0 F6000 X59.131 Y88.779 Z0.2
;TYPE:SKIRT
G1 F2700 E0
G1 F1200 X59.928 Y88.285 E0.03119
G1 X60.505 Y87.983 E0.05285
G1 X60.992 Y87.746 E0.07086
G1 X61.298 Y87.603 E0.0821
G1 X61.603 Y87.466 E0.09322
G1 X62.474 Y87.118 E0.12441
G1 X63.099 Y86.92 E0.14622
G1 X63.591 Y86.78 E0.16323
G1 X63.868 Y86.705 E0.17278
G1 X64.211 Y86.617 E0.18456
G1 X65.129 Y86.423 E0.21576
G1 X65.819 Y86.33 E0.23892
G1 X66.363 Y86.274 E0.25711
G1 X66.686 Y86.245 E0.26789
G1 X67.014 Y86.221 E0.27883
G1 X67.644 Y86.193 E0.29981
G1 X68.579 Y86.18 E0.33091
G1 X135.129 Y86.18 E2.54437
G1 X135.985 Y86.191 E2.57284
G1 X136.921 Y86.245 E2.60403
G1 X137.849 Y86.377 E2.6352
G1 X138.763 Y86.589 E2.66641
G1 X139.655 Y86.878 E2.6976
G1 X140.52 Y87.241 E2.7288
G1 X141.35 Y87.677 E2.75998
G1 X142.141 Y88.182 E2.79119
G1 X142.885 Y88.753 E2.82239
G1 X143.578 Y89.385 E2.85358
G1 X144.215 Y90.073 E2.88477
G1 X144.79 Y90.814 E2.91596
G1 X145.301 Y91.6 E2.94714
G1 X145.743 Y92.428 E2.97836
G1 X146.112 Y93.29 E3.00955
G1 X146.407 Y94.18 E3.04073
G1 X146.625 Y95.092 E3.07192
G1 X146.765 Y96.02 E3.10314
G1 X146.822 Y96.864 E3.13127
G1 X146.831 Y97.168 E3.14139
G1 X146.836 Y97.494 E3.15223
G1 X146.835 Y126.579 E4.1196
G1 X146.826 Y127.307 E4.14382
G1 X146.775 Y128.243 E4.17499
G1 X146.643 Y129.172 E4.2062
G1 X146.434 Y130.086 E4.23739
G1 X146.147 Y130.979 E4.26859
G1 X145.785 Y131.844 E4.29977
G1 X145.351 Y132.676 E4.33098
G1 X144.847 Y133.467 E4.36218
G1 X144.278 Y134.212 E4.39336
G1 X143.647 Y134.907 E4.42458
G1 X142.96 Y135.545 E4.45576
G1 X142.221 Y136.122 E4.48695
G1 X141.435 Y136.634 E4.51815
G1 X140.609 Y137.077 E4.54932
G1 X139.747 Y137.449 E4.58055
G1 X138.858 Y137.745 E4.61171
G1 X137.946 Y137.965 E4.64292
G1 X137.019 Y138.106 E4.6741
G1 X136.135 Y138.167 E4.70357
G1 X135.814 Y138.176 E4.71426
G1 X135.506 Y138.18 E4.7245
G1 X68.395 Y138.179 E6.95662
G1 X67.728 Y138.17 E6.97881
G1 X67.085 Y138.143 E7.00021
G1 X66.558 Y138.105 E7.01779
G1 X66.234 Y138.076 E7.02861
G1 X65.871 Y138.039 E7.04074
G1 X64.942 Y137.905 E7.07196
G1 X64.303 Y137.764 E7.09372
G1 X63.802 Y137.638 E7.11091
G1 X63.531 Y137.566 E7.12023
G1 X63.201 Y137.474 E7.13163
G1 X62.309 Y137.184 E7.16282
G1 X61.654 Y136.915 E7.18638
G1 X61.15 Y136.689 E7.20475
G1 X60.902 Y136.574 E7.21384
G1 X60.622 Y136.44 E7.22416
G1 X59.795 Y136 E7.25532
G1 X59.201 Y135.625 E7.27868
G1 X58.739 Y135.312 E7.29724
G1 X58.474 Y135.126 E7.30801
G1 X58.212 Y134.937 E7.31876
G1 X57.475 Y134.356 E7.34997
G1 X56.988 Y133.911 E7.37191
G1 X56.586 Y133.521 E7.39054
G1 X56.344 Y133.279 E7.40192
G1 X56.128 Y133.056 E7.41225
G1 X55.505 Y132.355 E7.44344
G1 X55.13 Y131.869 E7.46386
G1 X54.819 Y131.441 E7.48146
G1 X54.61 Y131.144 E7.49354
G1 X54.419 Y130.862 E7.50486
G1 X53.927 Y130.063 E7.53607
G1 X53.639 Y129.513 E7.55672
G1 X53.405 Y129.033 E7.57448
G1 X53.271 Y128.747 E7.58499
G1 X53.138 Y128.453 E7.59572
G1 X52.788 Y127.583 E7.62691
G1 X52.582 Y126.936 E7.64949
G1 X52.428 Y126.396 E7.66817
G1 X52.347 Y126.095 E7.67854
G1 X52.267 Y125.781 E7.68932
G1 X52.074 Y124.863 E7.72052
G1 X51.984 Y124.195 E7.74293
G1 X51.93 Y123.672 E7.76042
G1 X51.901 Y123.335 E7.77167
G1 X51.877 Y123.003 E7.78274
G1 X51.849 Y122.376 E7.80362
G1 X51.836 Y121.415 E7.83558
G1 X51.837 Y102.739 E8.45675
G1 X51.846 Y102.071 E8.47897
G1 X51.874 Y101.426 E8.50044
G1 X51.912 Y100.9 E8.51798
G1 X51.94 Y100.578 E8.52873
G1 X51.977 Y100.215 E8.54087
G1 X52.111 Y99.286 E8.57209
G1 X52.252 Y98.647 E8.59385
G1 X52.378 Y98.146 E8.61103
G1 X52.456 Y97.855 E8.62106
G1 X52.547 Y97.531 E8.63225
G1 X52.839 Y96.639 E8.66347
G1 X53.093 Y96.019 E8.68575
G1 X53.336 Y95.475 E8.70557
G1 X53.48 Y95.167 E8.71688
G1 X53.603 Y94.913 E8.72626
G1 X54.047 Y94.087 E8.75745
G1 X54.398 Y93.535 E8.77921
G1 X54.68 Y93.119 E8.79592
G1 X54.86 Y92.861 E8.80639
G1 X55.079 Y92.557 E8.81885
G1 X55.659 Y91.82 E8.85004
G1 X56.109 Y91.328 E8.87222
G1 X56.499 Y90.926 E8.89085
G1 X56.727 Y90.698 E8.90157
G1 X56.942 Y90.489 E8.91155
G1 X57.641 Y89.864 E8.94273
G1 X58.152 Y89.47 E8.96419
G1 X58.592 Y89.151 E8.98227
G1 X58.862 Y88.962 E8.99323
G1 X59.131 Y88.779 E9.00405
G0 F6000 X59.356 Y89.11
G1 F1200 X60.139 Y88.625 E9.03469
G1 X60.68 Y88.343 E9.05498
G1 X61.167 Y88.106 E9.07299
G1 X61.462 Y87.968 E9.08382
G1 X61.767 Y87.831 E9.09494
G1 X62.622 Y87.49 E9.12556
G1 X63.209 Y87.305 E9.14603
G1 X63.701 Y87.165 E9.16304
G1 X63.968 Y87.093 E9.17224
G1 X64.311 Y87.005 E9.18402
G1 X65.212 Y86.815 E9.21465
G1 X65.86 Y86.728 E9.23639
G1 X66.404 Y86.672 E9.25458
G1 X66.715 Y86.644 E9.26497
G1 X67.043 Y86.62 E9.27591
G1 X67.65 Y86.593 E9.29611
G1 X68.579 Y86.58 E9.32702
G1 X135.129 Y86.58 E11.54048
G1 X135.979 Y86.591 E11.56875
G1 X136.898 Y86.644 E11.59937
G1 X137.809 Y86.777 E11.62999
G1 X138.705 Y86.988 E11.66061
G1 X139.579 Y87.276 E11.69121
G1 X140.426 Y87.639 E11.72186
G1 X141.237 Y88.074 E11.75247
G1 X142.007 Y88.578 E11.78308
G1 X142.731 Y89.147 E11.81371
G1 X143.403 Y89.777 E11.84434
G1 X144.018 Y90.462 E11.87496
G1 X144.571 Y91.198 E11.90558
G1 X145.058 Y91.979 E11.93619
G1 X145.475 Y92.8 E11.96682
G1 X145.82 Y93.654 E11.99746
G1 X146.089 Y94.534 E12.02806
G1 X146.281 Y95.435 E12.0587
G1 X146.394 Y96.348 E12.0893
G1 X146.422 Y96.876 E12.10689
G1 X146.431 Y97.18 E12.117
G1 X146.436 Y97.494 E12.12745
G1 X146.435 Y126.574 E13.09465
G1 X146.426 Y127.302 E13.11887
G1 X146.375 Y128.221 E13.14948
G1 X146.244 Y129.133 E13.18012
G1 X146.034 Y130.029 E13.21073
G1 X145.748 Y130.904 E13.24135
G1 X145.387 Y131.751 E13.27197
G1 X144.953 Y132.563 E13.3026
G1 X144.451 Y133.335 E13.33322
G1 X143.883 Y134.06 E13.36386
G1 X143.255 Y134.733 E13.39447
G1 X142.571 Y135.349 E13.42509
G1 X141.836 Y135.903 E13.4557
G1 X141.056 Y136.392 E13.48632
G1 X140.236 Y136.811 E13.51695
G1 X139.383 Y137.157 E13.54756
G1 X138.503 Y137.428 E13.57819
G1 X137.603 Y137.621 E13.6088
G1 X136.689 Y137.736 E13.63944
G1 X136.124 Y137.767 E13.65826
G1 X135.803 Y137.776 E13.66895
G1 X135.506 Y137.78 E13.67882
G1 X68.4 Y137.779 E15.91078
G1 X67.733 Y137.77 E15.93297
G1 X67.114 Y137.744 E15.95357
G1 X66.587 Y137.706 E15.97115
G1 X66.274 Y137.678 E15.9816
G1 X65.911 Y137.641 E15.99373
G1 X65 Y137.508 E16.02435
G1 X64.401 Y137.376 E16.04476
G1 X63.9 Y137.25 E16.06194
G1 X63.638 Y137.181 E16.07095
G1 X63.308 Y137.089 E16.08234
G1 X62.433 Y136.803 E16.11296
G1 X61.818 Y136.55 E16.13508
G1 X61.314 Y136.324 E16.15345
G1 X61.075 Y136.213 E16.16222
G1 X60.795 Y136.079 E16.17254
G1 X59.983 Y135.646 E16.20315
G1 X59.426 Y135.294 E16.22506
G1 X58.964 Y134.981 E16.24362
G1 X58.708 Y134.802 E16.25401
G1 X58.446 Y134.613 E16.26476
G1 X57.723 Y134.042 E16.2954
G1 X57.266 Y133.624 E16.316
G1 X56.864 Y133.234 E16.33463
G1 X56.631 Y133.001 E16.34559
G1 X56.415 Y132.778 E16.35591
G1 X55.804 Y132.089 E16.38654
G1 X55.454 Y131.634 E16.40563
G1 X55.143 Y131.206 E16.42323
G1 X54.942 Y130.919 E16.43488
G1 X54.751 Y130.637 E16.44621
G1 X54.268 Y129.853 E16.47684
G1 X53.999 Y129.338 E16.49617
G1 X53.765 Y128.858 E16.51393
G1 X53.635 Y128.582 E16.52407
G1 X53.502 Y128.288 E16.53481
G1 X53.16 Y127.433 E16.56543
G1 X52.966 Y126.826 E16.58663
G1 X52.812 Y126.286 E16.60531
G1 X52.734 Y125.996 E16.61529
G1 X52.654 Y125.682 E16.62607
G1 X52.466 Y124.781 E16.65668
G1 X52.382 Y124.154 E16.67772
G1 X52.328 Y123.631 E16.69521
G1 X52.3 Y123.306 E16.70606
G1 X52.276 Y122.974 E16.71713
G1 X52.249 Y122.37 E16.73724
G1 X52.236 Y121.415 E16.76901
G1 X52.237 Y102.744 E17.39001
G1 X52.246 Y102.076 E17.41223
G1 X52.273 Y101.455 E17.4329
G1 X52.311 Y100.929 E17.45044
G1 X52.338 Y100.618 E17.46082
G1 X52.375 Y100.255 E17.47296
G1 X52.508 Y99.344 E17.50358
G1 X52.64 Y98.745 E17.52398
G1 X52.766 Y98.244 E17.54117
G1 X52.841 Y97.963 E17.55084
G1 X52.932 Y97.639 E17.56203
G1 X53.219 Y96.764 E17.59266
G1 X53.459 Y96.182 E17.6136
G1 X53.702 Y95.638 E17.63341
G1 X53.84 Y95.341 E17.64431
G1 X53.963 Y95.087 E17.65369
G1 X54.4 Y94.277 E17.68431
G1 X54.729 Y93.759 E17.70472
G1 X55.011 Y93.343 E17.72143
G1 X55.184 Y93.095 E17.73149
G1 X55.403 Y92.791 E17.74395
G1 X55.973 Y92.068 E17.77457
G1 X56.396 Y91.606 E17.79541
G1 X56.786 Y91.204 E17.81403
G1 X57.005 Y90.984 E17.82436
G1 X57.22 Y90.775 E17.83433
G1 X57.908 Y90.163 E17.86496
G1 X58.387 Y89.794 E17.88507
G1 X58.827 Y89.475 E17.90314
G1 X59.087 Y89.293 E17.9137
G1 X59.356 Y89.11 E17.92452
G0 F6000 X59.581 Y89.441
G1 F1200 X60.349 Y88.966 E17.95456
G1 X60.855 Y88.702 E17.97354
G1 X61.342 Y88.465 E17.99155
G1 X61.626 Y88.333 E18.00197
G1 X61.931 Y88.196 E18.01309
G1 X62.77 Y87.862 E18.04312
G1 X63.318 Y87.689 E18.06224
G1 X63.81 Y87.549 E18.07925
G1 X64.067 Y87.48 E18.0881
G1 X64.41 Y87.392 E18.09988
G1 X65.294 Y87.206 E18.12993
G1 X65.901 Y87.126 E18.15029
G1 X66.445 Y87.07 E18.16848
G1 X66.745 Y87.043 E18.1785
G1 X67.073 Y87.019 E18.18943
G1 X67.656 Y86.993 E18.20884
G1 X68.579 Y86.98 E18.23955
G1 X135.129 Y86.98 E20.45301
G1 X135.973 Y86.991 E20.48108
G1 X136.875 Y87.044 E20.51114
G1 X137.768 Y87.176 E20.54116
G1 X138.646 Y87.387 E20.57119
G1 X139.502 Y87.675 E20.60123
G1 X140.329 Y88.037 E20.63126
G1 X141.121 Y88.472 E20.66131
G1 X141.872 Y88.974 E20.69136
G1 X142.575 Y89.541 E20.7214
G1 X143.225 Y90.168 E20.75143
G1 X143.817 Y90.85 E20.78147
G1 X144.347 Y91.581 E20.8115
G1 X144.809 Y92.357 E20.84154
G1 X145.202 Y93.17 E20.87157
G1 X145.52 Y94.015 E20.9016
G1 X145.763 Y94.885 E20.93165
G1 X145.928 Y95.773 E20.96169
G1 X146.023 Y96.888 E20.99891
G1 X146.032 Y97.192 E21.00902
G1 X146.036 Y97.494 E21.01907
G1 X146.035 Y126.569 E21.98611
G1 X146.026 Y127.297 E22.01032
G1 X145.975 Y128.199 E22.04037
G1 X145.844 Y129.092 E22.07039
G1 X145.635 Y129.971 E22.10044
G1 X145.349 Y130.827 E22.13046
G1 X144.988 Y131.655 E22.1605
G1 X144.556 Y132.448 E22.19054
G1 X144.055 Y133.2 E22.22059
G1 X143.489 Y133.904 E22.25063
G1 X142.864 Y134.555 E22.28065
G1 X142.183 Y135.149 E22.31071
G1 X141.452 Y135.679 E22.34074
G1 X140.678 Y136.144 E22.37077
G1 X139.865 Y136.538 E22.40082
G1 X139.021 Y136.858 E22.43084
G1 X138.151 Y137.103 E22.4609
G1 X137.264 Y137.269 E22.49091
G1 X136.113 Y137.367 E22.52934
G1 X135.792 Y137.376 E22.54002
G1 X135.506 Y137.38 E22.54953
G1 X68.405 Y137.379 E24.78132
G1 X67.738 Y137.37 E24.8035
G1 X67.142 Y137.345 E24.82334
G1 X66.615 Y137.307 E24.84092
G1 X66.315 Y137.28 E24.85094
G1 X65.952 Y137.243 E24.86307
G1 X65.058 Y137.112 E24.89312
G1 X64.498 Y136.988 E24.9122
G1 X63.997 Y136.862 E24.92938
G1 X63.746 Y136.795 E24.93802
G1 X63.416 Y136.703 E24.94942
G1 X62.557 Y136.423 E24.97947
G1 X61.982 Y136.185 E25.00017
G1 X61.478 Y135.959 E25.01854
G1 X61.248 Y135.853 E25.02696
G1 X60.968 Y135.719 E25.03729
G1 X60.171 Y135.293 E25.06734
G1 X59.65 Y134.962 E25.08787
G1 X59.188 Y134.649 E25.10643
G1 X58.942 Y134.477 E25.11642
G1 X58.68 Y134.288 E25.12716
G1 X57.971 Y133.728 E25.15721
G1 X57.545 Y133.337 E25.17644
G1 X57.143 Y132.947 E25.19507
G1 X56.918 Y132.723 E25.20563
G1 X56.702 Y132.5 E25.21596
G1 X56.103 Y131.824 E25.246
G1 X55.777 Y131.399 E25.26381
G1 X55.466 Y130.971 E25.28141
G1 X55.273 Y130.695 E25.29261
G1 X55.082 Y130.413 E25.30394
G1 X54.609 Y129.644 E25.33397
G1 X54.358 Y129.163 E25.35201
G1 X54.124 Y128.683 E25.36978
G1 X54 Y128.417 E25.37954
G1 X53.867 Y128.123 E25.39027
G1 X53.531 Y127.285 E25.4203
G1 X53.351 Y126.716 E25.44015
G1 X53.197 Y126.176 E25.45882
G1 X53.122 Y125.897 E25.46843
G1 X53.042 Y125.583 E25.47921
G1 X52.858 Y124.699 E25.50924
G1 X52.78 Y124.113 E25.5289
G1 X52.726 Y123.59 E25.54639
G1 X52.699 Y123.277 E25.55684
G1 X52.675 Y122.945 E25.56791
G1 X52.649 Y122.364 E25.58726
G1 X52.636 Y121.415 E25.61882
G1 X52.637 Y102.75 E26.23962
G1 X52.646 Y102.082 E26.26184
G1 X52.672 Y101.484 E26.28175
G1 X52.71 Y100.958 E26.29929
G1 X52.736 Y100.659 E26.30927
G1 X52.773 Y100.296 E26.32141
G1 X52.904 Y99.402 E26.35146
G1 X53.028 Y98.842 E26.37054
G1 X53.154 Y98.341 E26.38772
G1 X53.226 Y98.071 E26.39702
G1 X53.317 Y97.747 E26.40821
G1 X53.599 Y96.889 E26.43825
G1 X53.824 Y96.345 E26.45783
G1 X54.067 Y95.801 E26.47764
G1 X54.2 Y95.515 E26.48814
G1 X54.323 Y95.261 E26.49752
G1 X54.752 Y94.467 E26.52754
G1 X55.06 Y93.984 E26.54659
G1 X55.342 Y93.568 E26.56331
G1 X55.509 Y93.329 E26.573
G1 X55.728 Y93.025 E26.58547
G1 X56.288 Y92.316 E26.61552
G1 X56.683 Y91.885 E26.63496
G1 X57.073 Y91.483 E26.65359
G1 X57.284 Y91.271 E26.66354
G1 X57.499 Y91.062 E26.67351
G1 X58.174 Y90.462 E26.70355
G1 X58.622 Y90.118 E26.72234
G1 X59.062 Y89.799 E26.74041
G1 X59.312 Y89.624 E26.75056
G1 X59.581 Y89.441 E26.76138
G1 F2700 E21.76138
;MESH:Car v6.3mf
G0 F6000 X71.571 Y105.26
G0 X70.597 Y104.176
G0 X69.036 Y106.563
G0 X68.365 Y107.787
G0 X67.865 Y109.089
G0 X67.54 Y110.445
G0 X67.402 Y111.831
G0 X67.449 Y113.224
G0 X67.68 Y114.6
G0 X68.093 Y115.932
G0 X68.679 Y117.197
G0 X69.431 Y118.373
G0 X70.332 Y119.437
G0 X71.366 Y120.373
G0 X72.516 Y121.162
G0 X73.761 Y121.793
G0 X75.078 Y122.249
G0 X76.444 Y122.528
G0 X77.57 Y122.601
G0 X80.637 Y122.405
;TYPE:WALL-INNER
G1 F2700 E26.76138
G1 F1200 X81.975 Y121.941 E26.80848
G1 X83.238 Y121.301 E26.85558
G1 X84.405 Y120.5 E26.90265
G1 X85.456 Y119.55 E26.94978
G1 X86.371 Y118.469 E26.99688
G1 X87.133 Y117.275 E27.04399
G1 X87.729 Y115.99 E27.0911
G1 X88.148 Y114.638 E27.13818
G1 X88.384 Y113.241 E27.1853
G1 X88.431 Y111.826 E27.23239
G1 X88.29 Y110.417 E27.27949
G1 X87.961 Y109.04 E27.32658
G1 X87.453 Y107.718 E27.37368
G1 X86.772 Y106.476 E27.42079
G1 X85.931 Y105.336 E27.46791
G1 X84.947 Y104.318 E27.515
G1 X83.835 Y103.44 E27.56213
G1 X82.617 Y102.718 E27.60922
G1 X81.313 Y102.166 E27.65632
G1 X79.948 Y101.792 E27.70339
G1 X78.544 Y101.603 E27.75051
G1 X77.128 Y101.603 E27.79761
G1 X75.724 Y101.792 E27.84472
G1 X74.359 Y102.166 E27.8918
G1 X73.055 Y102.718 E27.93889
G1 X71.836 Y103.44 E27.98602
G1 X70.725 Y104.318 E28.03311
G1 X69.74 Y105.336 E28.08023
G1 X68.9 Y106.476 E28.12733
G1 X68.219 Y107.718 E28.17444
G1 X67.711 Y109.04 E28.22154
G1 X67.382 Y110.417 E28.26863
G1 X67.24 Y111.826 E28.31573
G1 X67.288 Y113.241 E28.36282
G1 X67.523 Y114.638 E28.40994
G1 X67.943 Y115.99 E28.45703
G1 X68.538 Y117.275 E28.50413
G1 X69.301 Y118.469 E28.55125
G1 X70.216 Y119.55 E28.59836
G1 X71.266 Y120.5 E28.64545
G1 X72.434 Y121.301 E28.69256
G1 X73.697 Y121.941 E28.73965
G1 X75.035 Y122.405 E28.78676
G1 X76.423 Y122.687 E28.83386
G1 X77.836 Y122.781 E28.88096
G1 X79.249 Y122.687 E28.92806
G1 X80.637 Y122.405 E28.97517
G0 F6000 X80.531 Y122.018
;TYPE:WALL-OUTER
G1 F1200 X81.818 Y121.572 E29.02048
G1 X83.034 Y120.956 E29.06581
G1 X84.157 Y120.185 E29.11112
G1 X85.168 Y119.271 E29.15645
G1 X86.048 Y118.231 E29.20176
G1 X86.781 Y117.082 E29.24709
G1 X87.355 Y115.846 E29.29242
G1 X87.758 Y114.545 E29.33772
G1 X87.985 Y113.201 E29.38305
